X:1
T:William Byrd ~1540 - 1623
T:Viderunt omnes
%%score [ 1 2 3 4 ]
L:1/8
Q:1/4=200
M:4/4
K:C
V:1 treble nm="Cantus primus" snm="Cantus primus"
V:2 treble nm="Cantus secundus" snm="Cantus secundus"
V:3 treble nm="Tenor" snm="Tenor"
V:4 treble nm="Bassus" snm="Bassus"
V:1
"^Q""^:" x2 ||[K:F]"^[Chorus]" z16 x8 | z16 | z4 D8 d8 | ^c4 d4 A4 x4 |[M:4/2] B4 F2 A4 G2 F4 x8 | %6
w: |||Vi- de-|runt o- mnes|fi- nes~ ~ter * *|
w: ||||||
 E8 D4 F4 x2 | D3 CDE F3 EFG A4 | G8 z2 F4 G2 | A2 B2 c2 A2 B4 c4 x4 | F8 A6 B2 x4 | %11
w: ræ, fi- nes|ter- * * * * * * * *|ræ, sa- lu-|ta- re De- i no- *|stri, * *|
w: ||||* sa- lu-|
 c4 C2 c4 F2 A2 B2 | A8 C8 x4 | D4 E6 F2 G8 | C4 c6 B2 A8 | G3 A B4 x8 | F4 A3 B c4 C2 E4 | %17
w: |* sa-|lu- ta- re De-|i no- * stri,|ju- bi- la-|te, ju- bi- la- te De-|
w: ta- re De- i no *|stri, *|||||
 DC D4 z8 F3 x3 | G A8 D4 F4 | C4 A3 B c4 x4 | G4 B3 c d8 x4 | A4 c8 B8 | A8 G4 ^F4 x2 | %23
w: * * o, ju-|bi- la- te De-|o, ju- bi- la-|te, ju- bi- la-|te De- o|o- mnis ter-|
w: ||||||
 G8 ^F4"^-" x16 |]"^Q""^:" x2 x14 |"^Versus" z16 | G8 A8 x4 | B6 G2 ^F2 G2 A6 x2 | G2 G8 ^F4 x4 | %29
w: |||No- tum|fe- cit Do * *|* * mi-|
w: ||||||
[M:4/2] G8 B6 c2 | d6 c2 B2 A2 B4 | A8 z4 ^F4 | G8 A4 B8 | G4 G4 A4 x8 | ^F8 z8 | z4 d2 c2 B8 | %36
w: nus, sa- lu-|ta- re su * *|um, an-|te con- spe-|ctum~ ~gen- ti-|um|re- ve- la-|
w: |||||||
 G4 G4 B6 A2 x4 | G4 G8 ^F4 x4 | G4 A6 G2 ^F4 | z4 G8 ^F2 E2 | ^F8 z8 | z2 E4 F2 G4 A4 | %42
w: vit ju- sti- ti-|am su- am,|ju- sti- ti- am|su- * *|am.|Al- le- lu- *|
w: ||||||
 D4 z2 G4 ^F2 G8 | D4 z2 G4 ^F2 x8 | B4 A4 z2 A4 G2 | F2 G2 A2 B2 ^c2 d4 !courtesy!^c2 x2 | %46
w: ia, * * *||||
w: * Al- le- lu-|ia, Al- le-|lu- ia, Al- le-|lu * * * * * *|
 d4 F2 D2 A4 A,4 | F3 E D2 E2 ^F2 G2 A4 |"^-" x16 x14 || %49
w: * Al- le- lu- ia,|Al- le- lu * * * *||
w: ia, * * * *|||
V:2
"^Q""^:" x2 ||[K:F] D8 A16 | F8 G6 F2 | D4 F4 E8 x4 | D8 x8 |[M:4/2] z4 A8 d8 x4 | %6
w: |Vi- de-|runt o- mnes~|~fi- nes ter-|ræ||
w: |||||vi- de-|
 ^c4 d4 A4 B4 x2 | G2 A3 GFE D2 C3 =B,CD | E4 A,4 D4 x4 | C8 z4 C8 | D4 E4 F4 G4 x4 | E4 A4 F4 x4 | %12
w: |||* sa-|lu- ta- re De-|i no- stri,|
w: runt o- mnes fi-|nes ter- * * * * * * * *||rae, *|||
 z2 F4 G2 A2 B2 c2 A2 x4 | B4 c4 G8 x4 | B4 A2 A4 G2 G8 | ^F4 G8 x4 | z8 A3 B c4 x2 | %17
w: ||De- i no * *|* stri,|ju- bi- la-|
w: sa- lu- ta- re De- i|no- * stri,||||
 G4 B3 c d8 x4 | A4 c8 B4 x | A6 G2 F6 ED | E2 F2 G4 F4 D3 E x4 | F4 A4 G6 D2 x4 | F8 C8 x2 | %23
w: te, ju- bi- la-|te, De- o|o- mnis ter- * *|* * * ra, ju- bi-|la- te De- o|o- mnis|
w: ||||||
 D16 x12 |]"^-" x16 |"^Q""^:" x2 x14 | G8 A4 B8 | G4 ^F6 F2 G8 | A6 B2 c6 B2 x2 | A4 D4 x8 | %30
w: ter-|||No- tum fe-|cit Do- mi- nus,|sa- lu- ta- re|su- um|
w: |||||||
[M:4/2] B6 c2 d6 c2 | B2 A2 B4 G8 | z4 ^F4 G4 A4 x4 | B4 G4 ^F4 G4 x4 | D8 z4 c2 B2 | A8 G4 G4 | %36
w: ||an- te con-|spe~- ~ctum~ ~~gen- ti-|um, re- ve-|la- vit ju-|
w: sa- lu- ta- re|su * * um,|||||
 B6 A2 G4 d8 | c4 z4 d2 c2 B8 | A4 A4 c6 B2 | A8 x8 | B12 A2 G2 | A4 A8 =B4 | c4 G4 B4 c4 x4 | %43
w: sti- ti- am su-|am, * * *||||* Al- le-|lu- ia, * *|
w: |* re- ve- la-|vit ju- sti- ti-|am|su- * *|am. * *|* * Al- le-|
 d4 G4 z2 d4 G2 x4 | B4 A4 z2 B4 A2 | G4 ^F4 z4 A6 | G2"^(  )" F2 G2 A2 GF E4 F2 | %47
w: * * Al- le-|lu- ia, Al- le-|lu- ia, *|* * * * * * * Al-|
w: lu- ia, * *||* * Al-|le- lu * * * * ia, *|
 D2 A4 D2 F4 E2 D2 | E2 ^F2 G2 A2 G4 !courtesy!^F2"^-" x16 || %49
w: le- lu- ia, Al- le- lu||
w: ||
V:3
"^Q""^:" x2 ||[K:F][K:treble-8] z4 D8 d8 x4 | ^c4 d4 A4 B4 | G2 B4 AG F2 G2 A8 | B4 F2 x2- x8 | %5
w: |Vi- de-|runt o- mnes fi-|nes ter- * * * * ræ,|o- mnes~ ~fi-|
w: |||||
[M:4/2][K:treble-8] x2 e2 d4 ^c4 d4 x8 | e4 z2 A4 d3 c d4 | G2 B2 A2 d3 c ABcd e2 | %8
w: * nes ter- *|ræ, vi- de- runt~ ~o-|mens fi- nes~ ~ter- * * * * * *|
w: |||
 d4 ^c2 d4 x4- x2 | x2 g2 a4 g2 f2 e4 x4 | z8 z2 c4 d2 x4 | e2 f2 g2 e2 f4 d4 | c8 z4 f8 | %13
w: * * ræ, sa-|lu- ta- * * re,|sa- lu-|ta- re De- i no- *|stri, *|
w: ||||* sa-|
 g4 e4 c4 g4 x4 | f4 f4 d4 d8 | z8 x8 | d3 e f4 c4 z4 x2 | e3 f g4 d4 f8 | c4 f6 B2 d2 c2 x | %19
w: |||ju- bi- la- te|ju- bi- la- te De-|o o- mnis ter *|
w: lu- ta- re De-|i no- * stri,|||||
 f8 F4 x4 | z8 d3 e f8 | c4 _e4 d4 d6 x2 | c2 A3 B c8 B4 | A8"^-" x16 x4 |]"^Q""^:" x2 x14 | z16 | %26
w: * ra,|ju- bi- la-|te De- o o-|mnis ter * * *||||
w: |||||||
 z16 x4 | G8 d4 f8 | c4 d6 d2 x6 |[M:4/2][K:treble-8] G4 g6 a2 b2 a2 | g2"^(  )" f2 g8 G4 | %31
w: |No- tum fe-|cit Do- mi-|mus, sa- lu- ta- re|su * * um,|
w: |||||
 d6 c2 B4 A4 | G8 d4 z4 x4 | G8 B4 c4 x4 | d4 A4 =B4 c4 | G8 z4 g2 f2 | _e8 d4 G4 x4 | %37
w: sa- lu- ta- re|su- um,|an- te con-|spe~- ~ctum~ ~gen- ti-|um re- ve-|la- vit ju-|
w: ||||||
 G2 A2 B2 c2 d8 x4 | c8 d6 c2 | B2 A2 G4 d8 | z2 d4 e2 f4 g4 | c8 z8 | B4 c4 d4 G4 x4 | %43
w: sti * * ti- am|su- * *|* * * am.|Al- le- lu- *|ia,||
w: |||||Al- le- lu- ia,|
 z2 g4 ^f2 g4 d4 x4 | z4 d8 ^c4 | d8 A8 x2 | z4 d8 ^c4 | d16 | %48
w: |Al- le-|lu- ia,|Al- le-|lu-|
w: Al- le- lu- ia,|||||
"^[da capo Viderunt Omnes al fine]""^Chorus sequitur""^-" x16 x14 || %49
w: |
w: |
V:4
"^Q""^:""^Q" x2 ||[K:F][K:bass] z16 x8 | z16 | z16 x4 | z16 |[M:4/2] D,8 A,16 | F,8 G,6 F,2 x2 | %7
w: |||||Vi- de-|runt o- mnes~~|
 D,4 F,4 E,8 | D,8 x8 | F,8 G,4 A,8 | B,4 C4 F,4 C,8 | F,8 x8 | z16 x4 | z4 C,6 D,2 E,2 F,2 x4 | %14
w: ~~fi- nes ter-|ræ|sa- lu- ta-|re De- i no-|stri,||sa- lu- ta- re|
 G,2 E,2 F,8 G,4 x4 | D,8 z4 G,3 A, | B,4 F,8 A,3 B, x2 | C4 G,4 B,8 x4 | F,8 F,8 x | %19
w: De- i no- *|stri, ju- bi-|la- te, ju- bi-|la- te De-|o, De-|
 F,8 z4 A,3 B, | C4 G,4 B,8 x4 | F,8 G,6 F,2 x4 | D,3 E, F,8 E,4 x2 | D,16 x12 |] %24
w: o, ju- bi-|la- te De-|o o- mnis|ter * * *||
"^[fine, attacca Dies Sanctificatus]""^-" x16 |[M:4/2] z2 x14 | z16 x4 | z16 x4 | z18 | z14 x2 | %30
w: ||||||
[M:4/2] z16 | z16 | z16 x4 | z20 | z12 x4 |[M:4/2] z16 | z16 x4 | z16 x4 | z16 | z16 |[M:4/2] z16 | %41
w: |||||||||||
 z16 | z16 x4 | z20 | z12 x4 |[M:4/2] z18 | z16 | z16 | z30 || %49
w: ||||||||

